app/javascript/images/logo_full.svg

<svg xmlns="http://www.w3.org/2000/svg"><symbol id="mastodon-svg-logo-full" viewBox="0 0 713.35878 175.8678"><path d="M160.55476 105.43125c-2.4125 12.40625-21.5975 25.9825-43.63375 28.61375-11.49125 1.3725-22.80375 2.63125-34.8675 2.07875-19.73-.90375-35.2975-4.71-35.2975-4.71 0 1.92125.11875 3.75.355 5.46 2.565 19.47 19.3075 20.6375 35.16625 21.18125 16.00625.5475 30.2575-3.9475 30.2575-3.9475l.65875 14.4725s-11.19625 6.01125-31.14 7.11625c-10.99875.605-24.65375-.27625-40.56-4.485C6.99851 162.08 1.06601 125.31.15851 88-.11899 76.9225.05226 66.47625.05226 57.74125c0-38.1525 24.99625-49.335 24.99625-49.335C37.65226 2.6175 59.27976.18375 81.76351 0h.5525c22.48375.18375 44.125 2.6175 56.72875 8.40625 0 0 24.99625 11.1825 24.99625 49.335 0 0 .3125 28.1475-3.48625 47.69" fill="#3088d4"/><path d="M34.65751 48.494c0-5.55375 4.5025-10.055 10.055-10.055 5.55375 0 10.055 4.50125 10.055 10.055 0 5.5525-4.50125 10.055-10.055 10.055-5.5525 0-10.055-4.5025-10.055-10.055M178.86476 60.69975v46.195h-18.30125v-44.8375c0-9.4525-3.9775-14.24875-11.9325-14.24875-8.79375 0-13.2025 5.69125-13.2025 16.94375V89.2935h-18.19375V64.75225c0-11.2525-4.40875-16.94375-13.2025-16.94375-7.955 0-11.9325 4.79625-11.9325 14.24875v44.8375H73.79851v-46.195c0-9.44125 2.40375-16.94375 7.2325-22.495 4.98-5.55 11.50125-8.395 19.595-8.395 9.36625 0 16.45875 3.59875 21.14625 10.79875l4.56 7.6425 4.55875-7.6425c4.68875-7.2 11.78-10.79875 21.1475-10.79875 8.09375 0 14.61375 2.845 19.59375 8.395 4.82875 5.55125 7.2325 13.05375 7.2325 22.495M241.91276 83.663625c3.77625-3.99 5.595-9.015 5.595-15.075 0-6.06-1.81875-11.085-5.595-14.9275-3.63625-3.99125-8.25375-5.91125-13.84875-5.91125-5.59625 0-10.2125 1.92-13.84875 5.91125-3.6375 3.8425-5.45625 8.8675-5.45625 14.9275 0 6.06 1.81875 11.085 5.45625 15.075 3.63625 3.8425 8.2525 5.76375 13.84875 5.76375 5.595 0 10.2125-1.92125 13.84875-5.76375m5.595-52.025h18.04625v73.9h-18.04625v-8.72125c-5.455 7.2425-13.01 10.79-22.80125 10.79-9.3725 0-17.34625-3.695-24.06125-11.23375-6.57375-7.5375-9.93125-16.84875-9.93125-27.785 0-10.78875 3.3575-20.10125 9.93125-27.63875 6.715-7.5375 14.68875-11.38 24.06125-11.38 9.79125 0 17.34625 3.5475 22.80125 10.78875v-8.72zM326.26951 67.258625c5.315 3.99 7.97375 9.60625 7.83375 16.7 0 7.53875-2.65875 13.45-8.11375 17.58875-5.45625 3.99125-12.03 6.06-20.00375 6.06-14.40875 0-24.20125-5.9125-29.3775-17.58875l15.66875-9.31c2.0975 6.35375 6.71375 9.60625 13.70875 9.60625 6.43375 0 9.6525-2.07 9.6525-6.35625 0-3.10375-4.1975-5.91125-12.73-8.1275-3.21875-.8875-5.87625-1.77375-7.97375-2.51375-2.9375-1.18125-5.455-2.5125-7.55375-4.1375-5.17625-3.99-7.83375-9.3125-7.83375-16.11 0-7.2425 2.5175-13.00625 7.55375-17.145 5.17625-4.28625 11.47-6.355 19.025-6.355 12.03 0 20.84375 5.1725 26.5775 15.66625l-15.38625 8.8675c-2.23875-5.02375-6.015-7.53625-11.19125-7.53625-5.45625 0-8.11375 2.06875-8.11375 6.05875 0 3.10375 4.19625 5.91125 12.73 8.12875 6.575 1.4775 11.75 3.695 15.5275 6.50375M383.626635 49.966125h-15.8075v30.7425c0 3.695 1.4 5.91125 4.0575 6.945 1.95875.74 5.875.8875 11.75.59125v17.29375c-12.16875 1.4775-20.9825.295-26.15875-3.69625-5.175-3.8425-7.69375-10.93625-7.69375-21.13375v-30.7425h-12.17v-18.3275h12.17v-14.9275l18.045-5.76375v20.69125h15.8075v18.3275zM441.124885 83.2205c3.6375-3.84375 5.455-8.72125 5.455-14.6325 0-5.91125-1.8175-10.78875-5.455-14.63125-3.6375-3.84375-8.11375-5.76375-13.57-5.76375-5.455 0-9.93125 1.92-13.56875 5.76375-3.4975 3.99-5.31625 8.8675-5.31625 14.63125 0 5.765 1.81875 10.6425 5.31625 14.6325 3.6375 3.8425 8.11375 5.76375 13.56875 5.76375 5.45625 0 9.9325-1.92125 13.57-5.76375m-39.86875 13.15375c-7.13375-7.5375-10.63125-16.70125-10.63125-27.78625 0-10.9375 3.4975-20.1 10.63125-27.6375 7.13375-7.5375 15.9475-11.38 26.29875-11.38 10.3525 0 19.165 3.8425 26.3 11.38 7.135 7.5375 10.77125 16.84875 10.77125 27.6375 0 10.9375-3.63625 20.24875-10.77125 27.78625-7.135 7.53875-15.8075 11.2325-26.3 11.2325-10.49125 0-19.165-3.69375-26.29875-11.2325M524.92126 83.663625c3.6375-3.99 5.455-9.015 5.455-15.075 0-6.06-1.8175-11.085-5.455-14.9275-3.63625-3.99125-8.25375-5.91125-13.84875-5.91125-5.59625 0-10.2125 1.92-13.98875 5.91125-3.63625 3.8425-5.45625 8.8675-5.45625 14.9275 0 6.06 1.82 11.085 5.45625 15.075 3.77625 3.8425 8.5325 5.76375 13.98875 5.76375 5.595 0 10.2125-1.92125 13.84875-5.76375m5.455-81.585h18.04625v103.46h-18.04625v-8.72125c-5.315 7.2425-12.87 10.79-22.66125 10.79-9.3725 0-17.485-3.695-24.2-11.23375-6.575-7.5375-9.9325-16.84875-9.9325-27.785 0-10.78875 3.3575-20.10125 9.9325-27.63875 6.715-7.5375 14.8275-11.38 24.2-11.38 9.79125 0 17.34625 3.5475 22.66125 10.78875v-38.28zM611.79626 83.2205c3.63625-3.84375 5.455-8.72125 5.455-14.6325 0-5.91125-1.81875-10.78875-5.455-14.63125-3.6375-3.84375-8.11375-5.76375-13.57-5.76375-5.455 0-9.9325 1.92-13.56875 5.76375-3.49875 3.99-5.31625 8.8675-5.31625 14.63125 0 5.765 1.8175 10.6425 5.31625 14.6325 3.63625 3.8425 8.11375 5.76375 13.56875 5.76375 5.45625 0 9.9325-1.92125 13.57-5.76375m-39.86875 13.15375c-7.135-7.5375-10.63125-16.70125-10.63125-27.78625 0-10.9375 3.49625-20.1 10.63125-27.6375 7.135-7.5375 15.9475-11.38 26.29875-11.38 10.3525 0 19.165 3.8425 26.3 11.38 7.135 7.5375 10.77125 16.84875 10.77125 27.6375 0 10.9375-3.63625 20.24875-10.77125 27.78625-7.135 7.53875-15.8075 11.2325-26.3 11.2325-10.49125 0-19.16375-3.69375-26.29875-11.2325M713.35876 60.163875v45.37375h-18.04625v-43.00875c0-4.8775-1.25875-8.5725-3.77625-11.38-2.37875-2.5125-5.73625-3.84375-10.0725-3.84375-10.2125 0-15.3875 6.06-15.3875 18.3275v39.905h-18.04625v-73.89875h18.04625v8.27625c4.33625-6.94625 11.19-10.345 20.84375-10.345 7.69375 0 13.98875 2.66 18.885 8.12875 5.035 5.46875 7.55375 12.85875 7.55375 22.465"/></symbol></svg>

<?xml version="1.0" encoding="UTF-8" standalone="no"?>
<!DOCTYPE svg PUBLIC "-//W3C//DTD SVG 1.1//EN" "http://www.w3.org/Graphics/SVG/1.1/DTD/svg11.dtd">
<svg width="100%" height="100%" viewBox="0 0 1024 1024" version="1.1" xmlns="http://www.w3.org/2000/svg" xmlns:xlink="http://www.w3.org/1999/xlink" xml:space="preserve" xmlns:serif="http://www.serif.com/" style="fill-rule:evenodd;clip-rule:evenodd;stroke-linecap:round;stroke-linejoin:round;stroke-miterlimit:1.5;">
    <g id="mastodon-svg-logo-full">
        <path d="M160.555,105.431C158.142,117.838 138.957,131.414 116.921,134.045C105.43,135.418 94.117,136.676 82.054,136.124C62.324,135.22 46.756,131.414 46.756,131.414C46.756,133.335 46.875,135.164 47.111,136.874C49.676,156.344 66.419,157.511 82.277,158.055C98.284,158.603 112.535,154.108 112.535,154.108L113.194,168.58C113.194,168.58 101.997,174.591 82.054,175.696C71.055,176.301 57.4,175.42 41.494,171.211C6.999,162.08 1.066,125.31 0.159,88C-0.119,76.923 0.052,66.476 0.052,57.741C0.052,19.589 25.049,8.406 25.049,8.406C37.652,2.618 59.28,0.184 81.764,0L82.316,0C104.8,0.184 126.441,2.618 139.045,8.406C139.045,8.406 164.041,19.589 164.041,57.741C164.041,57.741 164.354,85.889 160.555,105.431" style="fill:rgb(48,136,212);fill-rule:nonzero;"/>
        <path d="M34.658,48.494C34.658,42.94 39.16,38.439 44.713,38.439C50.266,38.439 54.768,42.94 54.768,48.494C54.768,54.047 50.266,58.549 44.713,58.549C39.16,58.549 34.658,54.047 34.658,48.494M178.865,60.7L178.865,106.895L160.564,106.895L160.564,62.057C160.564,52.605 156.586,47.809 148.631,47.809C139.837,47.809 135.429,53.5 135.429,64.752L135.429,89.293L117.235,89.293L117.235,64.752C117.235,53.5 112.826,47.809 104.032,47.809C96.077,47.809 92.1,52.605 92.1,62.057L92.1,106.895L73.799,106.895L73.799,60.7C73.799,51.259 76.202,43.756 81.031,38.205C86.011,32.655 92.532,29.81 100.626,29.81C109.992,29.81 117.085,33.409 121.772,40.609L126.332,48.251L130.891,40.609C135.58,33.409 142.671,29.81 152.039,29.81C160.132,29.81 166.652,32.655 171.632,38.205C176.461,43.756 178.865,51.259 178.865,60.7M241.913,83.664C245.689,79.674 247.508,74.649 247.508,68.589C247.508,62.529 245.689,57.504 241.913,53.661C238.277,49.67 233.659,47.75 228.064,47.75C222.468,47.75 217.852,49.67 214.215,53.661C210.578,57.504 208.759,62.529 208.759,68.589C208.759,74.649 210.578,79.674 214.215,83.664C217.852,87.506 222.468,89.427 228.064,89.427C233.659,89.427 238.277,87.506 241.913,83.664M247.508,31.639L265.554,31.639L265.554,105.539L247.508,105.539L247.508,96.817C242.053,104.06 234.498,107.607 224.707,107.607C215.334,107.607 207.36,103.912 200.645,96.374C194.072,88.836 190.714,79.525 190.714,68.589C190.714,57.8 194.072,48.487 200.645,40.95C207.36,33.412 215.334,29.57 224.707,29.57C234.498,29.57 242.053,33.117 247.508,40.359L247.508,31.639ZM326.27,67.259C331.585,71.249 334.243,76.865 334.103,83.959C334.103,91.497 331.445,97.409 325.99,101.547C320.533,105.539 313.96,107.607 305.986,107.607C291.577,107.607 281.785,101.695 276.608,90.019L292.277,80.709C294.375,87.062 298.991,90.315 305.986,90.315C312.42,90.315 315.638,88.245 315.638,83.959C315.638,80.855 311.441,78.047 302.908,75.831C299.69,74.944 297.032,74.057 294.935,73.317C291.997,72.136 289.48,70.805 287.381,69.18C282.205,65.19 279.547,59.867 279.547,53.07C279.547,45.827 282.065,40.064 287.101,35.925C292.277,31.639 298.571,29.57 306.126,29.57C318.156,29.57 326.97,34.742 332.703,45.236L317.317,54.104C315.078,49.08 311.302,46.567 306.126,46.567C300.67,46.567 298.012,48.636 298.012,52.626C298.012,55.73 302.208,58.537 310.742,60.755C317.317,62.232 322.492,64.45 326.27,67.259M383.627,49.966L367.819,49.966L367.819,80.709C367.819,84.404 369.219,86.62 371.877,87.654C373.835,88.394 377.752,88.541 383.627,88.245L383.627,105.539C371.458,107.016 362.644,105.834 357.468,101.842C352.293,98 349.774,90.906 349.774,80.709L349.774,49.966L337.604,49.966L337.604,31.639L349.774,31.639L349.774,16.711L367.819,10.947L367.819,31.639L383.627,31.639L383.627,49.966ZM441.125,83.221C444.762,79.377 446.58,74.499 446.58,68.588C446.58,62.677 444.762,57.799 441.125,53.957C437.487,50.113 433.011,48.193 427.555,48.193C422.1,48.193 417.624,50.113 413.986,53.957C410.489,57.947 408.67,62.824 408.67,68.588C408.67,74.353 410.489,79.23 413.986,83.22C417.624,87.063 422.1,88.984 427.555,88.984C433.011,88.984 437.487,87.063 441.125,83.22M401.256,96.374C394.122,88.837 390.625,79.673 390.625,68.588C390.625,57.65 394.122,48.488 401.256,40.95C408.39,33.413 417.204,29.57 427.555,29.57C437.907,29.57 446.72,33.413 453.855,40.95C460.99,48.488 464.626,57.799 464.626,68.588C464.626,79.525 460.99,88.837 453.855,96.374C446.72,103.913 438.047,107.607 427.555,107.607C417.064,107.607 408.39,103.913 401.256,96.374M524.921,83.664C528.559,79.674 530.376,74.649 530.376,68.589C530.376,62.529 528.559,57.504 524.921,53.661C521.285,49.67 516.668,47.75 511.073,47.75C505.476,47.75 500.86,49.67 497.084,53.661C493.448,57.504 491.628,62.529 491.628,68.589C491.628,74.649 493.448,79.674 497.084,83.664C500.86,87.506 505.616,89.427 511.073,89.427C516.668,89.427 521.285,87.506 524.921,83.664M530.376,2.079L548.423,2.079L548.423,105.539L530.376,105.539L530.376,96.817C525.061,104.06 517.506,107.607 507.715,107.607C498.343,107.607 490.23,103.912 483.515,96.374C476.94,88.836 473.583,79.525 473.583,68.589C473.583,57.8 476.94,48.487 483.515,40.95C490.23,33.412 498.343,29.57 507.715,29.57C517.506,29.57 525.061,33.117 530.376,40.359L530.376,2.079ZM611.796,83.221C615.433,79.377 617.251,74.499 617.251,68.588C617.251,62.677 615.433,57.799 611.796,53.957C608.159,50.113 603.683,48.193 598.226,48.193C592.771,48.193 588.294,50.113 584.658,53.957C581.159,57.947 579.341,62.824 579.341,68.588C579.341,74.353 581.159,79.23 584.658,83.22C588.294,87.063 592.771,88.984 598.226,88.984C603.683,88.984 608.159,87.063 611.796,83.22M571.928,96.374C564.793,88.837 561.296,79.673 561.296,68.588C561.296,57.65 564.793,48.488 571.928,40.95C579.063,33.413 587.875,29.57 598.226,29.57C608.579,29.57 617.391,33.413 624.526,40.95C631.661,48.488 635.298,57.799 635.298,68.588C635.298,79.525 631.661,88.837 624.526,96.374C617.391,103.913 608.719,107.607 598.226,107.607C587.735,107.607 579.063,103.913 571.928,96.374M713.359,60.164L713.359,105.538L695.313,105.538L695.313,62.529C695.313,57.651 694.054,53.956 691.536,51.149C689.158,48.636 685.8,47.305 681.464,47.305C671.251,47.305 666.076,53.365 666.076,65.633L666.076,105.538L648.03,105.538L648.03,31.639L666.076,31.639L666.076,39.915C670.413,32.969 677.266,29.57 686.92,29.57C694.614,29.57 700.909,32.23 705.805,37.699C710.84,43.168 713.359,50.558 713.359,60.164" style="fill-rule:nonzero;"/>
        <g transform="matrix(1.37423,0,0,1.2206,-277.744,-184.848)">
            <rect x="514.678" y="198.076" width="206.938" height="97.247" style="fill:white;fill-opacity:0;"/>
            <clipPath id="_clip1">
                <rect x="514.678" y="198.076" width="206.938" height="97.247"/>
            </clipPath>
            <g clip-path="url(#_clip1)">
                <g transform="matrix(5.40695,0,0,6.0875,-2109.41,-478.094)">
                    <g id="レイヤー1">
                        <g>
                            <g transform="matrix(9.68989,0,0,9.68989,499.204,126.334)">
                                <path d="M0.588,-0.295L0.87,-0.295L0.87,-0.47L0.588,-0.47L0.588,-0.748L0.412,-0.748L0.412,-0.47L0.13,-0.47L0.13,-0.295L0.412,-0.295L0.412,-0.012L0.588,-0.012L0.588,-0.295Z" style="fill-rule:nonzero;"/>
                            </g>
                            <g transform="matrix(9.68989,0,0,9.68989,509.214,126.334)">
                                <path d="M0.376,-0.801L0.016,0.174L0.195,0.174L0.554,-0.801L0.376,-0.801Z" style="fill:rgb(89,89,89);fill-rule:nonzero;"/>
                            </g>
                            <g transform="matrix(9.68989,0,0,9.68989,515.067,126.334)">
                                <rect x="0.129" y="-0.469" width="0.742" height="0.178" style="fill-rule:nonzero;"/>
                            </g>
                        </g>
                    </g>
                </g>
            </g>
            <rect x="514.678" y="198.076" width="206.938" height="97.247" style="fill:none;stroke:white;stroke-opacity:0;stroke-width:10px;"/>
        </g>
    </g>
</svg>
